dist/landing-a/assets/images/name-icon.svg

<svg width="16" height="15" viewBox="0 0 16 15" fill="none" xmlns="http://www.w3.org/2000/svg">
<path d="M12.3538 2.33406C12.5058 2.70158 12.7975 2.9937 13.1648 3.14621L14.4527 3.67967C14.8202 3.83192 15.1122 4.12393 15.2644 4.49147C15.4167 4.85901 15.4167 5.27198 15.2644 5.63952L14.7314 6.92648C14.5791 7.29419 14.5789 7.70757 14.7319 8.0751L15.264 9.36168C15.3395 9.54372 15.3783 9.73885 15.3784 9.93591C15.3784 10.133 15.3396 10.3281 15.2642 10.5102C15.1888 10.6922 15.0782 10.8577 14.9389 10.997C14.7995 11.1363 14.634 11.2468 14.452 11.3222L13.165 11.8552C12.7975 12.0072 12.5053 12.2989 12.3528 12.6662L11.8194 13.9541C11.6671 14.3216 11.3751 14.6136 11.0076 14.7658C10.64 14.9181 10.2271 14.9181 9.85953 14.7658L8.57256 14.2328C8.20501 14.0809 7.7922 14.0812 7.42487 14.2336L6.13698 14.7663C5.76965 14.9182 5.35704 14.9181 4.9898 14.766C4.62255 14.6139 4.33071 14.3222 4.17836 13.955L3.64474 12.6668C3.49278 12.2993 3.20109 12.0071 2.83381 11.8546L1.54592 11.3212C1.17854 11.169 0.886615 10.8772 0.734317 10.5098C0.58202 10.1425 0.581813 9.72972 0.733743 9.36223L1.26682 8.07527C1.41869 7.70772 1.41838 7.2949 1.26596 6.92758L0.733646 5.63876C0.658174 5.45672 0.619313 5.2616 0.619281 5.06453C0.61925 4.86747 0.658049 4.67233 0.733462 4.49027C0.808875 4.30821 0.919423 4.14279 1.05879 4.00346C1.19816 3.86414 1.36361 3.75365 1.5457 3.67829L2.83266 3.14521C3.19986 2.99338 3.49181 2.70207 3.64443 2.33521L4.17789 1.04732C4.33014 0.679775 4.62215 0.387764 4.98969 0.235523C5.35723 0.0832824 5.7702 0.0832825 6.13774 0.235523L7.4247 0.768601C7.79226 0.920468 8.20507 0.920157 8.5724 0.767739L9.86083 0.23635C10.2283 0.0841947 10.6412 0.0842259 11.0087 0.236437C11.3761 0.388648 11.6681 0.680575 11.8204 1.04802L12.354 2.33629L12.3538 2.33406Z" fill="white"/>
</svg>

<svg width="16" height="15" fill="none" xmlns="http://www.w3.org/2000/svg"><path d="M12.354 2.334a1.5 1.5 0 00.81.812l1.289.534a1.5 1.5 0 01.811 1.96l-.533 1.286a1.498 1.498 0 000 1.15l.533 1.286a1.5 1.5 0 01-.812 1.96l-1.287.533a1.5 1.5 0 00-.812.811l-.534 1.288a1.5 1.5 0 01-1.96.812l-1.286-.533a1.5 1.5 0 00-1.148 0l-1.288.533a1.5 1.5 0 01-1.959-.811l-.533-1.288a1.5 1.5 0 00-.811-.812l-1.288-.534a1.5 1.5 0 01-.812-1.959l.533-1.287a1.5 1.5 0 00-.001-1.147l-.532-1.29a1.5 1.5 0 01.812-1.96l1.287-.533a1.5 1.5 0 00.811-.81l.534-1.288a1.5 1.5 0 011.96-.811l1.287.533A1.5 1.5 0 008.572.768L9.861.236a1.5 1.5 0 011.96.812l.533 1.288v-.002z" fill="#fff"/></svg>
